resources/icons/color/kqlqueryset.svg

<svg width="64" height="64" viewBox="0 0 64 64" fill="none" xmlns="http://www.w3.org/2000/svg">
<path d="M12 13C12 9.13401 15.134 6 19 6H49C52.866 6 56 9.13401 56 13V51C56 57.0751 51.0751 62 45 62H19C15.134 62 12 58.866 12 55V13Z" fill="url(#paint0_linear_41743_63439)"/>
<path d="M12 13C12 9.13401 15.134 6 19 6H49C52.866 6 56 9.13401 56 13V51C56 57.0751 51.0751 62 45 62H19C15.134 62 12 58.866 12 55V13Z" fill="url(#paint1_radial_41743_63439)" fill-opacity="0.2"/>
<path fill-rule="evenodd" clip-rule="evenodd" d="M49 7H19C15.6863 7 13 9.68629 13 13V55C13 58.3137 15.6863 61 19 61H45C50.5228 61 55 56.5228 55 51V13C55 9.68629 52.3137 7 49 7ZM19 6C15.134 6 12 9.13401 12 13V55C12 58.866 15.134 62 19 62H45C51.0751 62 56 57.0751 56 51V13C56 9.13401 52.866 6 49 6H19Z" fill="url(#paint2_linear_41743_63439)"/>
<path d="M8 9C8 5.13401 11.134 2 15 2H45C48.866 2 52 5.13401 52 9V51C52 54.866 48.866 58 45 58H15C11.134 58 8 54.866 8 51V9Z" fill="url(#paint3_linear_41743_63439)"/>
<path d="M8 9C8 5.13401 11.134 2 15 2H45C48.866 2 52 5.13401 52 9V51C52 54.866 48.866 58 45 58H15C11.134 58 8 54.866 8 51V9Z" fill="url(#paint4_radial_41743_63439)" fill-opacity="0.2"/>
<path fill-rule="evenodd" clip-rule="evenodd" d="M45 3H15C11.6863 3 9 5.68629 9 9V51C9 54.3137 11.6863 57 15 57H45C48.3137 57 51 54.3137 51 51V9C51 5.68629 48.3137 3 45 3ZM15 2C11.134 2 8 5.13401 8 9V51C8 54.866 11.134 58 15 58H45C48.866 58 52 54.866 52 51V9C52 5.13401 48.866 2 45 2H15Z" fill="url(#paint5_linear_41743_63439)"/>
<path fill-rule="evenodd" clip-rule="evenodd" d="M46.7905 59.24C46.5105 59.52 46.1305 59.68 45.7305 59.68C45.3305 59.68 44.9505 59.52 44.6705 59.24C44.3905 58.96 44.2305 58.58 44.2305 58.18C44.2305 57.78 44.3905 57.4 44.6705 57.12L47.5005 54.29C47.6505 54.14 47.8305 54.02 48.0305 53.95L45.6405 51.56C45.2105 51.13 45.0805 50.49 45.3205 49.92C45.5505 49.36 46.1005 49 46.7005 49H57.4905C58.3205 49 58.9905 49.67 58.9905 50.5V61.29C58.9905 61.71 58.8205 62.1 58.5205 62.38C58.2405 62.64 57.8705 62.79 57.4905 62.79C57.0905 62.79 56.7205 62.63 56.4305 62.35L54.2005 60.12C54.1305 60.31 54.0105 60.5 53.8605 60.65L51.0305 63.48C50.7505 63.76 50.3705 63.92 49.9705 63.92C49.5705 63.92 49.1905 63.76 48.9105 63.48C48.3305 62.9 48.3305 61.97 48.8805 61.39L46.7905 63.48C46.5105 63.76 46.1305 63.92 45.7305 63.92C45.3305 63.92 44.9505 63.76 44.6705 63.48C44.0905 62.9 44.0905 61.94 44.6705 61.36" fill="#F5F5F5"/>
<path fill-rule="evenodd" clip-rule="evenodd" d="M58.0005 50.5C58.0005 50.22 57.7805 50 57.5005 50H46.7105C46.2605 50 46.0405 50.54 46.3605 50.85L57.1505 61.64C57.4605 61.95 58.0005 61.73 58.0005 61.29V50.5ZM48.9205 55.71C49.1205 55.51 49.1205 55.2 48.9205 55C48.7205 54.8 48.4105 54.8 48.2105 55L45.3805 57.83C45.1805 58.03 45.1805 58.34 45.3805 58.54C45.5805 58.74 45.8905 58.74 46.0905 58.54L48.9205 55.71ZM51.0405 57.12C51.2405 57.32 51.2405 57.63 51.0405 57.83L46.0905 62.78C45.8905 62.98 45.5805 62.98 45.3805 62.78C45.1805 62.58 45.1805 62.27 45.3805 62.07L50.3305 57.12C50.5305 56.92 50.8405 56.92 51.0405 57.12ZM53.1605 59.95C53.3605 59.75 53.3605 59.44 53.1605 59.24C52.9605 59.04 52.6505 59.04 52.4505 59.24L49.6205 62.07C49.4205 62.27 49.4205 62.58 49.6205 62.78C49.8205 62.98 50.1305 62.98 50.3305 62.78L53.1605 59.95Z" fill="url(#paint6_linear_41743_63439)"/>
<defs>
<linearGradient id="paint0_linear_41743_63439" x1="24.2222" y1="6" x2="33.1528" y2="62.1348" gradientUnits="userSpaceOnUse">
<stop stop-color="white"/>
<stop offset="1" stop-color="#EBEBEB"/>
</linearGradient>
<radialGradient id="paint1_radial_41743_63439" cx="0" cy="0" r="1" gradientUnits="userSpaceOnUse" gradientTransform="translate(26.0556 20.5833) rotate(62.354) scale(50.0471 38.5706)">
<stop offset="0.177083" stop-color="white"/>
<stop offset="1" stop-color="#B8B8B8"/>
</radialGradient>
<linearGradient id="paint2_linear_41743_63439" x1="26.2083" y1="6" x2="35.7019" y2="61.9445" gradientUnits="userSpaceOnUse">
<stop stop-color="#BBBBBB"/>
<stop offset="1" stop-color="#888888"/>
</linearGradient>
<linearGradient id="paint3_linear_41743_63439" x1="20.2222" y1="2" x2="29.1528" y2="58.1348" gradientUnits="userSpaceOnUse">
<stop stop-color="white"/>
<stop offset="1" stop-color="#EBEBEB"/>
</linearGradient>
<radialGradient id="paint4_radial_41743_63439" cx="0" cy="0" r="1" gradientUnits="userSpaceOnUse" gradientTransform="translate(22.0556 16.5833) rotate(62.354) scale(50.0471 38.5706)">
<stop offset="0.177083" stop-color="white"/>
<stop offset="1" stop-color="#B8B8B8"/>
</radialGradient>
<linearGradient id="paint5_linear_41743_63439" x1="22.2083" y1="2" x2="31.7019" y2="57.9445" gradientUnits="userSpaceOnUse">
<stop stop-color="#BBBBBB"/>
<stop offset="1" stop-color="#888888"/>
</linearGradient>
<linearGradient id="paint6_linear_41743_63439" x1="45.2305" y1="50" x2="58.1595" y2="62.769" gradientUnits="userSpaceOnUse">
<stop stop-color="#4BA446"/>
<stop offset="1" stop-color="#3F7D35"/>
</linearGradient>
</defs>
</svg>

<svg xmlns="http://www.w3.org/2000/svg" width="64" height="64" fill="currentColor"><path fill="url(#a)" d="M12 13a7 7 0 0 1 7-7h30a7 7 0 0 1 7 7v38c0 6.075-4.925 11-11 11H19a7 7 0 0 1-7-7V13Z"/><path fill="url(#b)" fill-opacity=".2" d="M12 13a7 7 0 0 1 7-7h30a7 7 0 0 1 7 7v38c0 6.075-4.925 11-11 11H19a7 7 0 0 1-7-7V13Z"/><path fill="url(#c)" fill-rule="evenodd" d="M49 7H19a6 6 0 0 0-6 6v42a6 6 0 0 0 6 6h26c5.523 0 10-4.477 10-10V13a6 6 0 0 0-6-6ZM19 6a7 7 0 0 0-7 7v42a7 7 0 0 0 7 7h26c6.075 0 11-4.925 11-11V13a7 7 0 0 0-7-7H19Z" clip-rule="evenodd"/><path fill="url(#d)" d="M8 9a7 7 0 0 1 7-7h30a7 7 0 0 1 7 7v42a7 7 0 0 1-7 7H15a7 7 0 0 1-7-7V9Z"/><path fill="url(#e)" fill-opacity=".2" d="M8 9a7 7 0 0 1 7-7h30a7 7 0 0 1 7 7v42a7 7 0 0 1-7 7H15a7 7 0 0 1-7-7V9Z"/><path fill="url(#f)" fill-rule="evenodd" d="M45 3H15a6 6 0 0 0-6 6v42a6 6 0 0 0 6 6h30a6 6 0 0 0 6-6V9a6 6 0 0 0-6-6ZM15 2a7 7 0 0 0-7 7v42a7 7 0 0 0 7 7h30a7 7 0 0 0 7-7V9a7 7 0 0 0-7-7H15Z" clip-rule="evenodd"/><path fill="#F5F5F5" fill-rule="evenodd" d="M46.79 59.24a1.499 1.499 0 1 1-2.12-2.12l2.83-2.83c.15-.15.33-.27.53-.34l-2.39-2.39c-.43-.43-.56-1.07-.32-1.64.23-.56.78-.92 1.38-.92h10.79c.83 0 1.5.67 1.5 1.5v10.79c0 .42-.17.81-.47 1.09-.28.26-.65.41-1.03.41-.4 0-.77-.16-1.06-.44l-2.23-2.23c-.07.19-.19.38-.34.53l-2.83 2.83a1.499 1.499 0 0 1-2.15-2.09l-2.09 2.09a1.499 1.499 0 0 1-2.12 0c-.58-.58-.58-1.54 0-2.12" clip-rule="evenodd"/><path fill="url(#g)" fill-rule="evenodd" d="M58 50.5c0-.28-.22-.5-.5-.5H46.71c-.45 0-.67.54-.35.85l10.79 10.79a.5.5 0 0 0 .85-.35V50.5Zm-9.08 5.21c.2-.2.2-.51 0-.71-.2-.2-.51-.2-.71 0l-2.83 2.83c-.2.2-.2.51 0 .71.2.2.51.2.71 0l2.83-2.83Zm2.12 1.41c.2.2.2.51 0 .71l-4.95 4.95c-.2.2-.51.2-.71 0-.2-.2-.2-.51 0-.71l4.95-4.95c.2-.2.51-.2.71 0Zm2.12 2.83c.2-.2.2-.51 0-.71-.2-.2-.51-.2-.71 0l-2.83 2.83c-.2.2-.2.51 0 .71.2.2.51.2.71 0l2.83-2.83Z" clip-rule="evenodd"/><defs><linearGradient id="a" x1="24.222" x2="33.153" y1="6" y2="62.135" gradientUnits="userSpaceOnUse"><stop stop-color="#fff"/><stop offset="1" stop-color="#EBEBEB"/></linearGradient><linearGradient id="c" x1="26.208" x2="35.702" y1="6" y2="61.944" gradientUnits="userSpaceOnUse"><stop stop-color="#BBB"/><stop offset="1" stop-color="#888"/></linearGradient><linearGradient id="d" x1="20.222" x2="29.153" y1="2" y2="58.135" gradientUnits="userSpaceOnUse"><stop stop-color="#fff"/><stop offset="1" stop-color="#EBEBEB"/></linearGradient><linearGradient id="f" x1="22.208" x2="31.702" y1="2" y2="57.944" gradientUnits="userSpaceOnUse"><stop stop-color="#BBB"/><stop offset="1" stop-color="#888"/></linearGradient><linearGradient id="g" x1="45.23" x2="58.16" y1="50" y2="62.769" gradientUnits="userSpaceOnUse"><stop stop-color="#4BA446"/><stop offset="1" stop-color="#3F7D35"/></linearGradient><radialGradient id="b" cx="0" cy="0" r="1" gradientTransform="matrix(23.22222 44.33329 -34.16705 17.89704 26.056 20.583)" gradientUnits="userSpaceOnUse"><stop offset=".177" stop-color="#fff"/><stop offset="1" stop-color="#B8B8B8"/></radialGradient><radialGradient id="e" cx="0" cy="0" r="1" gradientTransform="matrix(23.22222 44.33329 -34.16705 17.89704 22.056 16.583)" gradientUnits="userSpaceOnUse"><stop offset=".177" stop-color="#fff"/><stop offset="1" stop-color="#B8B8B8"/></radialGradient></defs></svg>
